X: 34128
T: Reel Du Colporteur
R: slip jig
M: 9/8
K: Gmajor
c|Bdc BGG Bdc|Bdc BGB cAF|Adc BGG BGB|c2B AFA G2:|
|:D|GBd gdB cBA|GBd gfg adB|[M:6/8] A2B cBA|[M:9/8] d2c BAG BAB|c2B AFA G2:|

